X: 101846
T: John Egan's #1
S: "Treoir" 34/2
N: John Egan (1903-1989), flute player from Sligo
L: 1/8
M: 4/4
R: reel
Q: 375
K: Dmix
ed|cA A2 GEDE | GBAF G3A | B2 AB GEDG | Bdd^c df :|
ed|cdef g3 e | a2 af g2 ed | cdef g2 fg |1 afge df :|2 afge d2 ||
